X:88
T: Jungfer Doertchen
N: Q0057a
O: Mitteleuropa, Deutschland (DDR) , Sachsen, Altmark
N: Dritte und vierte Zeile = Refrain auf sinnfreie Silben.
R: Ballade, Todesahnung, Tod, Selbstmord
M: 4/4
L: 1/16
K: G
D4 | G4D4G2B2A2G2 | F4D4D4
D2F2 | A4A4A2B2c2A2 | B4G4G4
G4 | E3CC2C2C2
E2G2E2 | E2D2D4D4
c4 | B2d2G2B2d2c2A2F2 | A2G2G4G4

